X:1
T:Title
%%score { ( 1 3 ) | ( 2 4 ) }
L:1/8
M:6/8
K:E
V:1 treble nm="Grand Piano"
V:3 treble 
V:2 bass 
V:4 bass 
V:1
 z3 z2[Q:1/4=100] [GB] | [GB]2 [=G^A] [^GB]2 [=Ac] | [GB]3 [EG]2 [EG] | [DF]2 [DF] [DB]2 [DA] | %4
 [EG]3- [EG]2 [GB] | [GB]2 [=G^A] [^GB]2 [=Ac] | [GB]2 [GB] G2 G | F2 F G2 ^A | %8
[M:5/8] [DB]-[DB]- [DB]3 |[M:1/8] B |[M:3/4] B6 | B6 | G6 | G6 | [DF]2 [=D^E] [^DF]2 [=EG] | %15
 [FA][FA] [^EG] [FA]2 [GB] | [Ac]2 [GB] [=G^A]2 [=Ac] | [GB]4- [GB]B | B6 | B6 | A6 | %21
[M:7/8] c-c-c- c3 z |[M:3/4] B2 ^A B2 c | B3 E2 F | G2 A [EG]2 [DF] |[M:5/8] E-E- E3 |] %26
V:2
 z3 z2 [E,E] | [E,E]2 [E,E] [E,E]2 [E,E] | [E,E]3 [E,B,]2 [E,B,] | %3
 [B,,B,]2 [B,,B,] [B,,B,]2 [B,,B,] | [E,B,]3- [E,B,]2 [E,E] | [E,E]2 [E,E] [E,E]2 [E,E] | %6
 [E,E]2 [E,E] [E,B,E]2 [E,B,E] | [F,B,D]2 [F,B,D] [F,^A,E]2 [F,CE] | %8
[M:5/8] [B,,B,]-[B,,B,]- [B,,B,]3 |[M:1/8] z |[M:3/4] z2 [E,G,] [E,G,]2 [E,=G,E] | E2 z2 z2 | %12
 z2 [E,B,] [E,B,]2 [E,^A,E] | E2 z2 z2 | [B,,B,]2 [B,,B,] [B,,B,]2 [B,,B,] | %15
 [B,,B,][B,,B,] [B,,B,] [B,,B,]2 [B,,B,] | [E,B,]2 [E,B,] [E,C]2 [E,E] | [E,E]6 | %18
 z2 [E,G,] [E,G,]2 [E,=G,F] | E2 z2 z2 | z2 [A,C] [A,C]2 [A,B,E] |[M:7/8] E2 z z z z2 | %22
[M:3/4] [E,G,E]2 [E,=G,E] [E,^G,E]2 [E,A,E] | [E,G,E]3 [G,B,]2[K:treble] [A,C] | %24
 [B,E]2 [B,F][K:bass] [B,,B,]2 [B,,A,] |[M:5/8] [E,G,]-[E,G,]- [E,G,]3 |] %26
V:3
 x6 | x6 | x6 | x6 | x6 | x6 | x6 | x6 |[M:5/8] x5 |[M:1/8] x |[M:3/4] z2 E E2 ^A | z2 E E2 G | %12
 z2 E E2 =G | z2 E E2 G | x6 | x6 | x6 | x6 | z2 E E2 ^A | z2 E E2 G | z2 E E2 B | %21
[M:7/8] z2 E E3 c |[M:3/4] x6 | x6 | x6 |[M:5/8] x5 |] %26
V:4
 x6 | x6 | x6 | x6 | x6 | x6 | x6 | x6 |[M:5/8] x5 |[M:1/8] x |[M:3/4] x6 | [E,G,]6 | x6 | %13
 [E,B,]4- [E,B,][E,B,E] | x6 | x6 | x6 | x6 | x6 | [E,G,]6 | x6 |[M:7/8] A,-A,-A,- A,3 [A,E] | %22
[M:3/4] x6 | x5[K:treble] x | x3[K:bass] x3 |[M:5/8] x5 |] %26

